X:124
T:Lamplighter's Hornpipe
S:American Veteran Fifer, #124
C:To Sam Mullhaney Portsmuoth O. 117th O.V.I.
%"Mullhaney" is barely legible and could be "Mollbaney" or "McIlhaney"
M:C|
L:1/8
Q:1/8=300
K:Amaj 
%%MIDI program 72
%%MIDI transpose 8
%%MIDI ratio 3 1
cd | ecec eagf | ecec eagf | ecec fedc | d2 B2 B2 cd |
ecec eagf | ecec eagf | efde cdBc | A2A2A2 :|
|: cd | edcd e2 fe | dcBc d2 ed | cAcA dcBA | B2B2B2 cd |
edcd e2 fe | dcBc d2 ed | cagf edcB | A2A2A2 :|


